X: 188
T: Juan Xipian
L: 1/16
M: 2/4
K: G
d2 d2 e2 d g [I:setbarnb 1]| 
g e d ed4 | 
B2 A E G2 A B | 
G A E2D4 | 
B2 A Bd4 | 
B2 A E G2 A B | 
G2 A E D B, D E | 
G8 |]

@@@ Tune index: 9062
